X:080 
T:Hills of Kesh (reel), The 
T:Eel in the Sink, Irishman's Blackthorn
B:CRE3.181 (Cnocain na Ceise)
F:file ID: cre.3/080hills_k
N:CRE considers this an A modal tune (= c's sharp, g's natural) but I've never 
heard it played that way.
R:reel
L:1/8
Q:180
M:C
K:Am
e2AB cdeg|d2BG dGBd|e2AB cde^f|gedB BAA2:|
|:a2ed egdB|cde^f g2fg|agab g^fgb|gedB BAAe|
a2ag aged|cde^f g2fg|a2ge ^fdef|gedB BAA2||

%%%

